X:1
T:The Munster Jig
T:Jackson's Mistake
M:6/8
L:1/8
R:Double Jig
S:http://www.rogermillington.com/siamsa/brosteve/jigsII.html
K:G
|: GFG AGA | Bgg {a}gdB | GFG AGA | BGE E2D |
   GFG AGA | B2g    gdB | cBA BdB | AGF G3 :|
|: gfg efg | e/f/ag fed | gfg efg | afd def |
   gfe agf | gfe    edB | cBA BdB | AGF G3 :|
